!! 00000] TT[
!!!OTL: Liu liu Shange
!!!ARE: Asia, China,ÿAnhui
!! Ethnic Group: Han
!! MM, ZHONGGUO MINGE XUAN S.93
!!!SCT: C1292
!!!YEM: Copyright 1995, estate of Helmut Schaffrath.
**kern
*ICvox
*Ivox
*M2/4
*k[b-]
*F:
{8cc
16cc
16a
8dd
16a
16g
=1
4f
4f
=2
4f
4f}
=3
{8cc
8cc
8dd
16cc
16a
=4
4cc
4cc
=5
4cc
4cc}
=6
{8ff
16ff
16dd
8cc
8dd
=7
8cc
8cc
8a
8g
=8
8cc
8g
8cc
16a
16g
=9
8.f
16g
4f
=10
8.f
16g
4f}
==
!!!AGN: Shange. Xin minge
!! Gesprochener Rhythmus in der dritten Zeile; Verzierung
!!    Pinyin-Text der ersten Strophe vorhanden!
!!!ONB: ESAC (Essen Associative Code) Database: CHINA
!!!AMT: simple duple
!!!AIN: vox
!!!EED: Helmut Schaffrath
!!!EEV: 1.0
*-
